X:1
T:When Comes the Golden Sunset
T:When Comes the Golden Sunset
T:Calvin Weiss Laufer
T:Calvin Weiss Laufer, 1922
T:Public Domain Courtesy of the Cyber Hymnal™
T:Public Domain Courtesy of the Cyber Hymnal™
C:Calvin Weiss Laufer
Z:Public Domain
Z:Courtesy of the Cyber Hymnal™
%%score ( 1 2 ) ( 3 4 )
L:1/8
Q:1/4=110
M:4/4
K:G
V:1 treble 
V:2 treble 
V:3 bass 
V:4 bass 
V:1
 D2 | [DG]2 [Dd]2 [DA]2 [DF]2 | [DG]4 [DG]2 (GA) | [DB]2 [=FG]2 [Ec]2 [_EG]2 | [DB]6 [DB]2 | %5
w: 1.~When|comes the gold- en|sun- set That *|trails God’s way on|high, And|
w: 2.~So|God re- veals at|sun- set The *|grand- eur of His|throne, The|
w: 3.~Then|come, blest hour of|sun- set, A- *|long the gold- en|way, And|
 [DA]2 [Dd]2 [DB]2 [DG]2 | [DF]4 [DA]2 [^DF]2 | (AG) [B,F]2 [^CE]2 [CF]2 | D6 D2 | %9
w: with its ra- diant|splen- dor Il-|lumes * the even- ing|sky, How|
w: deep- er, full- er|glo- ry Re-|served * to be our|own; And|
w: thrill us with the|splen- dors That|fill * life’s per- fect|day. God|
 [Dc]2 [DA]2 [DB]2 [DG]2 | [DA]4 [DF]2 D2 | [Dd]2 [EB]2 [Ec]2 [DA]2 | [DB]6 [DB]2 | %13
w: are the hills and|val- leys A-|glow with crim- son|rays, While|
w: in that hour’s un-|fold- ing For-|got are fear and|pain In|
w: is the end of|liv- ing, He|sat- is- fies the|soul, And|
 [EB]2 [EB]2 [EA]2 [EG]2 | [DF]4 [DA]2 [DF]2 | (AG) [DF]2 [^CE]2 [CF]2 | D6 z2 || %17
w: na- ture’s deep toned|or- gan Lifts|heav- * en- ward its|praise:|
w: love’s a- bound- ing|sol- ace, In|heav- * en’s great re-|frain:|
w: they who seek His|glo- ry Will|find * in Him their|goal.|
"^Refrain" [DG]4 [Dd]4 | [DA]4 [Fd]4 | [DG]2 [DG]2 (GF) [DE]2 | [DG]4 [DF]4 | [Fc]4 [Fe]4 | %22
w: |||||
w: “Ho- ly,|ho- ly!”|An- gel voic- * es|sing it;|“Ho- ly,|
w: |||||
 [EB]4 [^Ge]4 | [Ec]2 [Ec]2 (cB) [EA]2 | [DG]4 [DF]4 | [DB]4 [Gd]4 | [=Fd]4 [FG]4 | %27
w: |||||
w: ho- ly!”|Cloud- y pin- * ions|wing it;|“Ho- ly,|ho- ly!”|
w: |||||
 [Ee]2 [Ee]2 (ed) [Ec]2 | [FB]4 [FA]4 | [DB]4 [Dd]4 | E4 [_Ec]4 | [DB]2 [DB]2 (BA) [CB]2 | %32
w: |||||
w: Gleam- ing tow- * ers|ring it;|“Ho- ly,|ho- ly,|is the Lord * most|
w: |||||
 [B,G]6 |] %33
w: |
w: high.”|
w: |
V:2
 D2 | x8 | x6 D2 | x8 | x8 | x8 | x8 | E2 x6 | D6 D2 | x8 | x6 D2 | x8 | x8 | x8 | x8 | D2 x6 | %16
 D6 x2 || x8 | x8 | x4 D2 x2 | x8 | x8 | x8 | x4 E2 x2 | x8 | x8 | x8 | x4 E2 x2 | x8 | x8 | %30
 _E4 x4 | x4 C2 x2 | x6 |] %33
V:3
 D,2 | [G,,B,]2 [G,,B,]2 [D,F,]2 [C,A,]2 | [B,,G,]4 [B,,G,]2 ([B,,G,][D,F,]) | %3
 G,2 [B,,D]2 [C,G,]2 [C,G,]2 | [G,,G,]6 [G,,G,]2 | [D,F,]2 [F,A,]2 G,2 [E,B,]2 | %6
 A,4 [F,A,]2 [B,,B,]2 | [E,B,]2 [E,G,]2 [A,,G,]2 [A,,G,]2 | [D,F,]6 [D,F,]2 | %9
 [A,,F,]2 [C,F,]2 [B,,G,]2 [E,G,]2 | [D,F,]4 [D,A,]2 [C,F,]2 | [B,,G,]2 [E,G,]2 [A,,A,]2 [D,F,]2 | %12
 [G,,G,]6 G,2 | [E,G,]2 [D,G,]2 [^C,A,]2 [C,A,]2 | [D,A,]4 [D,F,]2 [C,A,]2 | %15
 [B,,G,]2 [G,,B,]2 [A,,G,]2 [A,,G,]2 | [D,F,]6 z2 || [G,,B,]4 [B,,G,]4 | [D,F,]4 [D,C]4 | %19
 [G,B,]2 [D,B,]2 [G,B,]2 [D,B,]2 | [A,C]4 [D,C]4 | [D,E]4 [A,C]4 | [^G,D]4 [E,D]4 | %23
 [A,C]2 [E,A,]2 ([A,,A,][B,,^G,]) [C,A,]2 | [D,B,]4 [D,A,]4 | [G,,G,]4 [G,,B,]4 | %26
 [B,,G,]4 [B,,D]4 | [C,G,]2 [C,G,]2 (CB,) [A,,A,]2 | [D,C]4 [D,C]4 | [G,B,]4 [B,,G,]4 | %30
 G,4 [A,,G,]4 | [D,G,]2 [D,F,]2 [D,E,]2 [D,F,]2 | [G,,G,]6 |] %33
V:4
 D,2 | x8 | x8 | G,2 x6 | x8 | x4 G,2 x2 | A,4 x4 | x8 | x8 | x8 | x8 | x8 | x6 G,2 | x8 | x8 | %15
 x8 | x8 || x8 | x8 | x8 | x8 | x8 | x8 | x8 | x8 | x8 | x8 | x4 A,,2 x2 | x8 | x8 | %30
 (C,2 B,,2) x4 | x8 | x6 |] %33

